modules/framework7-icons/icons/videocam_round_fill.svg

<?xml version="1.0" encoding="UTF-8"?>
<svg width="50px" height="50px" viewBox="0 0 50 50" version="1.1" xmlns="http://www.w3.org/2000/svg" xmlns:xlink="http://www.w3.org/1999/xlink">
    <!-- Generator: Sketch 40.1 (33804) - http://www.bohemiancoding.com/sketch -->
    <title>videocam_round_fill</title>
    <desc>Created with Sketch.</desc>
    <defs></defs>
    <g id="Page-1" stroke="none" stroke-width="1" fill="none" fill-rule="evenodd">
        <g id="videocam_round_fill" fill="#000000">
            <path d="M25,50 C38.8071187,50 50,38.8071187 50,25 C50,11.1928813 38.8071187,0 25,0 C11.1928813,0 0,11.1928813 0,25 C0,38.8071187 11.1928813,50 25,50 Z M10,20.0061948 C10,17.7936345 11.7914886,16 13.9949977,16 L26.5982227,16 C28.804599,16 30.5932203,17.7874739 30.5932203,20.0061948 L30.5932203,30.9938052 C30.5932203,33.2063655 28.8017317,35 26.5982227,35 L13.9949977,35 C11.7886214,35 10,33.2125261 10,30.9938052 L10,20.0061948 Z M38.7344665,17.7770227 C39.345652,17.4244157 40,17.794819 40,18.5018112 L40,32.372174 C40,33.0825279 39.3447491,33.4490486 38.7344665,33.0969625 L32.7324962,29.6342873 C32.3099679,29.390521 32,28.8567043 32,28.3711247 L32,22.5028605 C32,22.0177595 32.3107475,21.4830144 32.7324962,21.2396979 L38.7344665,17.7770227 Z" id="Combined-Shape"></path>
        </g>
    </g>
</svg>

<svg width="50" height="50" viewBox="0 0 50 50" xmlns="http://www.w3.org/2000/svg"><path d="M25 50c13.807 0 25-11.193 25-25S38.807 0 25 0 0 11.193 0 25s11.193 25 25 25zM10 20.006A4.002 4.002 0 0 1 13.995 16h12.603a3.997 3.997 0 0 1 3.995 4.006v10.988A4.002 4.002 0 0 1 26.598 35H13.995A3.997 3.997 0 0 1 10 30.994V20.006zm28.734-2.229c.612-.353 1.266.018 1.266.725v13.87c0 .71-.655 1.077-1.266.725l-6.002-3.463c-.422-.243-.732-.777-.732-1.263v-5.868c0-.485.31-1.02.732-1.263l6.002-3.463z" fill="#000" fill-rule="evenodd"/></svg>
